X: 239
T:Bank of Turf, The
N: page 78
N: heptatonic
R:jig
M:6/8
K:D
dB|"D"ABA DFA|BAF DFA|"A7"dcd ede|"D"~f3 def|\
"G7"~g3 gab|"Bm"afd B3|"A7"efe e2d|cBA "D"AdB|
ABA DFA|"Bm"BAF DFA|"D"dcd ede|~f3 def|\
"G7"~g3 "D"gab|"A7"afd B2A|ABA efe|"D"d3 d||
cd|"A7"eAA efg|"D"fdd fga|"A7"gfe fed|"D"edB ABd|\
"A7"eAA efg|"D"fdd fga|"G7"gfe dcB|"A7"A3 z:|
